source/img/index__images/input-phone.svg

<svg width="59" height="59" viewBox="0 0 59 59" fill="none" xmlns="http://www.w3.org/2000/svg">
<rect width="59" height="59" fill="#E5E5E5"/>
<path d="M30.0408 20C26.4636 20 22.9068 20.6084 21.582 21.8155C20.6245 22.9164 20.0702 24.2821 20.0023 25.7072C19.9992 25.7619 19.9992 25.8167 20.0023 25.8714C20.0023 26.0814 20.0904 26.2828 20.2471 26.4313C20.4038 26.5798 20.6164 26.6633 20.838 26.6633L24.0788 26.4122H24.1604C24.2688 26.4109 24.3759 26.3895 24.4755 26.349C24.5752 26.3085 24.6654 26.2498 24.7411 26.1763C24.8168 26.1027 24.8765 26.0158 24.9168 25.9204C24.957 25.825 24.977 25.7231 24.9757 25.6203V24.0463C24.9743 23.9313 24.9971 23.8173 25.0426 23.7107C25.088 23.6041 25.1554 23.5072 25.2407 23.4254C25.326 23.3437 25.4276 23.2788 25.5395 23.2345C25.6515 23.1903 25.7716 23.1675 25.8929 23.1675H34.046C34.2919 23.1675 34.5278 23.2601 34.7017 23.4249C34.8757 23.5897 34.9734 23.8132 34.9734 24.0463V25.601C34.9733 25.8077 35.0585 26.0063 35.2109 26.1542C35.3632 26.3022 35.5706 26.3878 35.7887 26.3929H35.8804L39.162 26.644C39.2717 26.644 39.3804 26.6235 39.4818 26.5837C39.5832 26.5439 39.6753 26.4856 39.7529 26.412C39.8305 26.3385 39.8921 26.2512 39.9341 26.1551C39.9761 26.0591 39.9977 25.9561 39.9977 25.8521C40.0008 25.7974 40.0008 25.7426 39.9977 25.6879C39.9242 24.2761 39.378 22.9231 38.4384 21.8252C37.1951 20.6084 33.6179 20 30.0408 20ZM30.0408 30.3039C29.7102 30.3039 29.3871 30.3968 29.1122 30.5708C28.8373 30.7449 28.6231 30.9922 28.4966 31.2816C28.3701 31.571 28.337 31.8894 28.4015 32.1966C28.466 32.5039 28.6252 32.7861 28.8589 33.0075C29.0927 33.229 29.3905 33.3799 29.7147 33.441C30.0389 33.5021 30.375 33.4707 30.6804 33.3509C30.9858 33.231 31.2468 33.028 31.4305 32.7676C31.6141 32.5071 31.7121 32.2009 31.7121 31.8877C31.7135 31.6793 31.6712 31.4728 31.5877 31.2801C31.5042 31.0874 31.3811 30.9123 31.2256 30.7649C31.0702 30.6176 30.8854 30.501 30.682 30.4219C30.4786 30.3427 30.2606 30.3027 30.0408 30.3039ZM28.7872 26.7598V25.7942C28.7872 25.538 28.6799 25.2924 28.4887 25.1113C28.2976 24.9302 28.0384 24.8285 27.7681 24.8285C27.4978 24.8285 27.2386 24.9302 27.0475 25.1113C26.8563 25.2924 26.749 25.538 26.749 25.7942V26.7598L21.0214 32.4478C20.819 32.6306 20.6584 32.8511 20.5497 33.0953C20.441 33.3395 20.3865 33.6023 20.3896 33.8673V35.4511C20.3896 35.872 20.5653 36.2758 20.8785 36.5744C21.1917 36.8729 21.6168 37.0419 22.061 37.0445H22.4788V38.0102C22.4788 38.1402 22.5058 38.2689 22.5583 38.389C22.6108 38.5091 22.6878 38.6182 22.7848 38.7101C22.8818 38.802 22.9969 38.8749 23.1237 38.9247C23.2504 38.9744 23.3862 39 23.5234 39C23.6606 39 23.7964 38.9744 23.9232 38.9247C24.0499 38.8749 24.1651 38.802 24.2621 38.7101C24.3591 38.6182 24.436 38.5091 24.4885 38.389C24.541 38.2689 24.568 38.1402 24.568 38.0102V37.0445H35.4727V38.0102C35.4727 38.2727 35.5828 38.5245 35.7787 38.7101C35.9746 38.8957 36.2403 39 36.5173 39C36.7944 39 37.0601 38.8957 37.256 38.7101C37.4519 38.5245 37.562 38.2727 37.562 38.0102V37.0445H37.9798C38.2001 37.0445 38.4183 37.0032 38.6218 36.923C38.8252 36.8428 39.0099 36.7253 39.1653 36.5772C39.3206 36.4291 39.4435 36.2534 39.5269 36.0601C39.6103 35.8669 39.6525 35.6599 39.6512 35.4511V33.8673C39.6556 33.603 39.6027 33.3406 39.4958 33.0964C39.3888 32.8523 39.2301 32.6315 39.0295 32.4478L33.3835 26.7598V25.7942C33.3835 25.5316 33.2735 25.2799 33.0776 25.0942C32.8817 24.9086 32.616 24.8043 32.3389 24.8043C32.0619 24.8043 31.7962 24.9086 31.6003 25.0942C31.4044 25.2799 31.2943 25.5316 31.2943 25.7942V26.7598H28.7872ZM30.0408 28.6912C30.7019 28.6912 31.3482 28.877 31.8979 29.225C32.4476 29.5731 32.8761 30.0678 33.1291 30.6466C33.3821 31.2253 33.4483 31.8622 33.3193 32.4766C33.1903 33.0911 32.8719 33.6555 32.4044 34.0984C31.937 34.5414 31.3413 34.8431 30.6929 34.9653C30.0445 35.0875 29.3724 35.0248 28.7615 34.7851C28.1507 34.5453 27.6287 34.1393 27.2614 33.6185C26.8941 33.0976 26.698 32.4852 26.698 31.8587C26.698 31.0186 27.0502 30.213 27.6771 29.619C28.304 29.0249 29.1542 28.6912 30.0408 28.6912Z" fill="#D22856"/>
</svg>

<svg width="59" height="59" fill="none" xmlns="http://www.w3.org/2000/svg"><path fill="#E5E5E5" d="M0 0h59v59H0z"/><path d="M30.04 20c-3.576 0-7.133.608-8.458 1.816a6.392 6.392 0 00-1.58 3.891 1.45 1.45 0 000 .164c0 .21.088.412.245.56a.86.86 0 00.591.232l3.24-.25h.082a.865.865 0 00.581-.237.748.748 0 00.235-.556v-1.574a.828.828 0 01.067-.335.866.866 0 01.198-.286.923.923 0 01.299-.19.963.963 0 01.353-.067h8.153c.246 0 .482.092.656.257a.856.856 0 01.271.621v1.555a.77.77 0 00.238.553c.152.148.36.234.578.239h.091l3.282.251a.876.876 0 00.59-.232.79.79 0 00.182-.257.755.755 0 00.064-.303 1.45 1.45 0 000-.164 6.455 6.455 0 00-1.56-3.863C37.195 20.608 33.618 20 30.041 20zm0 10.304c-.33 0-.653.093-.928.267-.275.174-.489.421-.615.71-.127.29-.16.608-.096.916.065.307.224.59.458.81.234.222.531.373.856.434.324.061.66.03.965-.09.306-.12.567-.323.75-.583a1.526 1.526 0 00-.204-2.003 1.669 1.669 0 00-.544-.343 1.742 1.742 0 00-.641-.118zm-1.253-3.544v-.966a.94.94 0 00-.298-.683 1.048 1.048 0 00-.72-.283c-.271 0-.53.102-.721.283a.94.94 0 00-.299.683v.966l-5.728 5.688a1.933 1.933 0 00-.471.647 1.844 1.844 0 00-.16.772v1.584c0 .421.175.825.488 1.123a1.73 1.73 0 001.183.47h.418v.966c0 .13.027.259.08.379.052.12.129.23.226.321.097.092.212.165.339.215a1.095 1.095 0 001.138-.215.988.988 0 00.226-.321.945.945 0 00.08-.379v-.965h10.905v.965c0 .263.11.515.306.7.196.186.461.29.738.29.277 0 .543-.104.739-.29a.964.964 0 00.306-.7v-.965h.418c.22 0 .438-.042.642-.122.203-.08.388-.198.543-.346a1.58 1.58 0 00.362-.517c.083-.193.126-.4.124-.609v-1.584a1.844 1.844 0 00-.155-.77 1.933 1.933 0 00-.467-.65l-5.646-5.687v-.966a.964.964 0 00-.305-.7 1.075 1.075 0 00-.74-.29c-.276 0-.542.105-.738.29a.964.964 0 00-.306.7v.966h-2.507zm1.254 1.931c.66 0 1.307.186 1.857.534.55.348.978.843 1.231 1.422.253.578.32 1.215.19 1.83a3.12 3.12 0 01-.915 1.621 3.403 3.403 0 01-1.711.867c-.649.122-1.32.06-1.931-.18a3.311 3.311 0 01-1.5-1.166 3.05 3.05 0 01-.564-1.76c0-.84.352-1.646.98-2.24a3.439 3.439 0 012.363-.928z" fill="#D22856"/></svg>
